<?xml version="1.0" encoding="UTF-8"?>
<map version="1.10" tiledversion="1.12.2" orientation="orthogonal" renderorder="right-down" width="20" height="20" tilewidth="16" tileheight="16" infinite="0" nextlayerid="3" nextobjectid="1">
 <tileset firstgid="1" source="NES - Battle City JPN - General Sprites.tsx"/>
 <layer id="1" name="Background" width="20" height="20">
  <data encoding="csv">
147,147,147,147,147,147,147,147,147,147,147,147,147,147,147,147,147,147,147,147,
147,147,147,147,147,147,147,147,147,147,147,147,147,147,147,147,147,147,147,147,
147,147,147,147,147,93,93,93,93,147,147,147,147,147,147,147,147,147,147,147,
147,147,147,147,147,93,93,93,93,147,147,147,147,147,147,147,147,147,147,147,
147,147,147,147,147,147,147,147,147,147,147,69,147,42,42,42,42,147,147,147,
147,147,147,147,147,147,147,147,147,147,147,69,147,147,147,147,42,147,147,147,
147,147,147,147,147,147,147,147,147,147,147,69,147,147,147,17,42,147,147,147,
147,147,42,42,147,147,147,147,147,147,147,69,147,147,147,17,42,147,147,147,
147,147,42,42,42,42,147,147,147,147,147,69,147,147,147,17,17,147,147,147,
147,147,42,17,17,17,17,17,147,147,147,147,147,147,147,147,147,147,147,147,
147,147,42,147,147,147,147,147,147,147,147,147,147,147,147,147,147,147,147,147,
147,147,147,147,147,147,147,147,147,147,147,147,147,147,147,147,147,147,147,147,
147,147,147,147,147,47,147,147,147,147,42,42,42,42,147,147,147,147,147,147,
147,147,147,147,147,47,147,147,147,147,147,147,147,42,42,147,147,147,147,147,
147,147,147,147,147,47,147,147,147,147,147,147,147,147,147,147,147,147,147,147,
147,147,147,147,147,47,147,147,147,147,147,147,147,147,147,147,147,147,147,147,
147,147,147,147,147,47,147,147,147,147,147,147,147,147,147,147,147,147,147,147,
147,17,147,147,147,47,147,147,147,147,147,147,147,147,147,147,147,147,147,147,
42,17,17,147,147,47,147,147,19,147,147,147,147,147,147,147,147,147,147,147,
42,42,17,17,147,47,147,18,70,20,147,147,147,147,147,147,147,147,147,147
</data>
 </layer>
 <layer id="2" name="Objects" width="20" height="20">
  <data encoding="csv">
17,17,17,17,0,0,0,0,0,0,0,0,21,21,21,21,0,0,0,43,
17,17,17,17,0,0,0,0,0,0,0,0,0,0,0,0,0,0,0,43,
17,17,0,0,0,0,0,0,0,0,0,0,0,0,0,0,0,0,0,43,
17,17,0,0,0,0,0,0,0,0,0,0,0,0,0,0,0,0,0,43,
17,17,0,0,0,0,0,0,0,68,68,68,68,0,0,0,0,0,0,43,
45,0,0,0,0,0,0,0,0,0,68,0,68,0,0,0,0,0,0,43,
45,0,0,0,0,0,0,0,0,0,68,0,68,0,0,0,0,0,0,43,
45,0,0,0,0,0,0,0,0,0,68,0,68,0,0,0,0,0,0,43,
45,0,0,0,0,0,0,0,0,0,0,0,0,0,0,0,0,0,0,43,
45,0,0,0,0,0,0,0,0,0,0,0,0,0,0,21,21,0,0,43,
45,0,0,0,0,0,0,0,0,0,0,0,0,0,0,0,0,0,0,43,
45,0,0,0,0,0,0,0,0,0,0,0,0,0,0,0,0,0,0,43,
45,0,0,0,0,0,68,68,0,0,0,0,0,0,0,0,0,0,0,43,
45,0,0,0,68,68,0,68,0,0,0,0,0,0,0,0,0,0,0,43,
45,0,0,0,68,0,0,68,0,0,0,0,0,0,0,0,0,0,0,43,
45,0,0,0,68,68,68,68,0,0,0,0,0,0,0,0,0,0,0,43,
45,0,0,0,0,0,0,0,0,0,0,0,0,68,68,68,68,68,0,43,
45,0,0,0,0,0,0,0,0,0,0,0,0,68,68,68,68,68,0,43,
0,0,0,0,0,0,0,0,0,0,0,0,0,0,0,0,0,0,0,43,
0,0,0,0,0,0,0,0,0,0,0,0,0,0,0,0,0,0,0,43
</data>
 </layer>
</map>
