<?xml version="1.0" encoding="UTF-8"?>
<map version="1.10" tiledversion="1.12.2" orientation="orthogonal" renderorder="right-down" width="20" height="20" tilewidth="16" tileheight="16" infinite="0" nextlayerid="4" nextobjectid="1">
 <tileset firstgid="1" source="tilemap.tsx"/>
 <layer id="1" name="Background" width="20" height="20">
  <data encoding="csv">
1,1,1,1,1,1,1,1,1,1,1,1,1,1,1,1,1,1,1,1,
1,1,1,1,1,1,1,1,1,1,1,1,1,3,1,1,1,3,1,1,
1,1,1,1,1,1,1,1,1,1,1,1,1,1,1,1,1,1,1,1,
1,1,1,1,3,1,1,1,1,1,1,1,1,1,1,1,1,1,1,1,
1,1,1,1,1,1,1,1,1,1,1,1,3,1,1,1,1,1,1,1,
1,1,1,1,1,1,1,1,1,1,1,1,1,1,1,1,1,1,1,1,
1,1,1,1,1,1,3,1,1,1,1,1,1,1,3,1,3,1,1,3,
1,1,1,1,1,1,1,1,1,1,1,1,1,1,1,1,1,1,1,1,
1,1,1,3,3,1,1,1,1,1,1,1,1,1,1,1,1,1,1,1,
1,1,1,3,3,1,1,1,3,1,1,1,1,1,1,1,1,1,1,1,
1,1,1,1,1,1,1,1,1,1,3,1,1,1,1,1,1,1,1,1,
1,1,1,1,1,1,1,1,1,1,1,1,1,1,1,1,1,1,1,1,
1,1,1,1,1,1,1,1,1,1,1,1,1,1,1,1,3,1,1,1,
1,1,1,3,1,1,1,1,1,1,1,1,1,1,1,1,1,1,1,1,
1,1,1,1,1,1,1,1,1,1,1,1,1,1,1,1,1,1,1,1,
1,1,1,1,1,1,1,1,3,1,1,1,1,1,1,1,3,3,1,1,
1,1,1,1,1,1,1,1,1,1,1,1,3,1,1,1,1,1,1,1,
1,1,1,1,1,1,1,1,1,1,1,1,1,1,1,1,1,1,1,1,
1,1,1,1,1,3,1,1,1,1,1,1,1,1,1,1,1,1,1,1,
1,1,1,1,1,1,1,1,1,1,1,1,1,1,3,1,1,1,1,1
</data>
 </layer>
 <layer id="2" name="Roads" width="20" height="20">
  <data encoding="csv">
0,0,0,0,0,0,0,0,0,0,0,0,0,0,0,0,0,145,0,0,
0,0,0,0,0,0,0,0,0,0,0,0,0,0,0,0,0,145,0,0,
0,0,0,0,0,0,0,0,0,0,0,0,0,0,0,0,0,145,0,0,
0,0,0,0,0,0,0,0,0,0,0,0,0,0,0,38,38,167,38,38,
0,0,0,0,0,0,0,0,0,0,0,0,0,0,0,38,38,167,38,38,
111,111,111,111,111,111,111,111,111,130,0,0,0,0,0,38,38,167,38,38,
0,0,0,0,0,0,0,0,0,145,0,0,0,0,0,38,38,167,38,38,
0,0,0,0,0,0,0,0,0,145,0,0,0,0,0,38,38,167,38,38,
0,0,0,0,0,0,0,0,0,145,0,0,0,0,0,38,38,167,38,38,
0,0,0,0,0,0,0,0,0,145,0,0,0,0,0,38,38,167,38,38,
0,0,0,0,0,0,0,0,0,145,0,0,0,0,0,38,38,167,38,38,
0,0,0,0,0,0,0,0,0,145,0,0,0,0,0,0,0,145,0,0,
0,0,0,0,0,0,0,0,0,145,0,0,0,0,128,111,111,166,0,0,
0,0,0,0,0,0,0,0,0,145,0,0,0,0,145,0,0,0,0,0,
0,0,0,0,0,0,0,0,0,145,0,0,0,0,145,0,0,0,0,0,
0,0,0,0,0,0,0,0,0,145,0,0,0,0,145,0,0,0,0,0,
0,0,0,0,0,0,0,0,0,164,111,111,111,111,148,0,0,0,0,0,
0,0,0,0,0,0,0,0,0,0,0,0,0,0,145,0,0,0,0,0,
0,0,0,0,0,0,0,0,0,0,0,0,0,0,145,0,0,0,0,0,
0,0,0,0,0,0,0,0,0,0,0,0,0,0,145,0,0,0,0,0
</data>
 </layer>
 <layer id="3" name="Objects" width="20" height="20">
  <data encoding="csv">
0,0,0,0,0,0,0,0,0,0,0,0,0,0,95,0,0,0,0,0,
0,0,113,95,0,0,0,0,95,0,0,0,0,0,0,0,0,0,0,0,
0,0,0,0,0,0,0,0,0,0,0,113,0,0,0,0,0,0,0,0,
0,0,0,0,0,0,0,95,0,0,0,0,0,0,0,0,0,0,0,0,
0,0,0,0,0,0,0,0,0,0,0,0,0,0,0,0,0,0,0,0,
0,0,0,0,0,0,0,0,0,0,0,0,0,0,0,0,0,0,0,0,
0,0,0,0,0,0,0,0,0,0,95,0,0,0,0,0,0,0,0,0,
0,0,0,0,0,95,0,0,0,0,0,0,0,113,0,0,0,0,0,0,
0,0,0,0,0,0,0,0,0,0,0,0,0,0,0,0,0,0,0,0,
0,0,0,0,0,0,0,0,0,0,0,0,0,0,0,0,0,0,0,0,
0,0,113,0,0,0,0,113,0,0,0,0,113,0,0,0,0,0,0,0,
0,0,0,0,95,0,0,0,0,0,0,0,0,0,0,0,0,0,0,0,
0,0,0,0,0,0,0,0,0,0,0,0,0,0,0,0,0,0,0,0,
0,0,0,0,0,0,0,0,95,0,0,0,95,95,0,0,0,0,0,0,
0,0,0,0,0,0,0,0,0,0,0,0,0,0,0,0,0,0,95,0,
0,0,0,0,0,0,0,95,0,0,0,0,0,0,0,0,0,0,0,0,
0,0,113,0,0,0,0,0,0,0,0,0,0,0,0,0,0,0,0,0,
0,0,0,0,0,113,0,0,0,0,0,0,0,0,0,0,0,0,0,0,
0,0,0,0,0,0,0,0,0,0,0,0,0,0,0,0,0,0,0,113,
0,0,0,0,0,0,0,0,0,0,0,0,0,0,0,0,0,0,0,0
</data>
 </layer>
</map>
